!!!SOCIAL_FUNCTION:	songs of war
!!!PDT:	1913
!!!OTL: No_20_A_War_Bird.krn
!!!REG: Great_Lakes
!!!LANG: Non-Tone
!!!LING_GROUP: Algonquin
**kern	**kern
*staff2	*staff1
=1-	=1-
*clefF4	*clefF4
*k[f#]	*k[f#]
*M3/4	*M3/4
12GG^/	4e\
12r	.
12GG/	.
12GG^/	8e\L
12r	.
.	8e\J
12GG/	.
12GG^/	8e\L
12r	.
.	8e\J
12GG/	.
=2	=2
2.r	4.g\
.	8e\
.	4d\
=3	=3
2.r	4.e\
.	8d\
.	4B\
=4	=4
2.r	2.B\
=5	=5
2.r	8.B\L
.	16B\Jk
.	8B\L
.	8B\J
.	4B\
=6	=6
2.r	8.B\L
.	16B\Jk
.	8d\L
.	8B\J
.	8.A\L
.	16A\Jk
=7||	=7||
*M2/4	*M2/4
2r	8.B\L
.	16d\Jk
.	8B\L
.	8A\J
=8||	=8||
*M3/4	*M3/4
2.r	8.G\L
.	16A\Jk
.	8G\L
.	8E\J
.	4E\
=9	=9
2.r	2.E\
=10	=10
2.r	8.E\L
.	16E\Jk
.	8E\L
.	8E\J
.	8D\L
.	8D\J
=11	=11
2.r	8.E\L
.	16F#\Jk
.	8E\L
.	8D\J
.	8BB/L
.	8BB/J
=12	=12
2.r	2.BB/
==	==
*-	*-
